dist/svg/game-duo-tone.svg

<svg xmlns="http://www.w3.org/2000/svg" viewBox="0 0 24 24"><path d="M6.31 5.285C4.941 5.417 3.637 6.474 3.207 7.8a5 5 0 0 0-.125.447c-.044.199-.642 7.258-.642 7.571 0 .274.11.763.246 1.089.355.856 1.103 1.502 2.036 1.757.35.096 1.083.097 1.438.001.143-.038.427-.15.63-.248.467-.225.745-.482 1.495-1.382.306-.369.645-.734.751-.812.259-.19.655-.372.92-.422.286-.054 3.802-.054 4.088 0 .265.05.661.232.92.422.106.078.445.443.751.812.75.9 1.028 1.157 1.495 1.382.526.253.8.318 1.35.318 1.02 0 1.884-.457 2.474-1.308.294-.425.526-1.134.526-1.609 0-.4-.604-7.389-.659-7.626-.134-.58-.317-.979-.652-1.424a3.73 3.73 0 0 0-2.632-1.486c-.53-.051-10.783-.048-11.307.003M18.015 6.89c.728.291 1.248.889 1.404 1.61.081.379.633 7.05.61 7.384-.034.512-.382 1.004-.868 1.232-.193.09-.272.103-.621.101-.663-.003-.758-.068-1.618-1.095-.775-.925-1.03-1.154-1.622-1.454-.768-.389-1.064-.427-3.3-.427s-2.532.038-3.3.427c-.592.3-.847.529-1.622 1.454-.86 1.027-.955 1.092-1.618 1.095-.349.002-.428-.011-.621-.101-.486-.228-.834-.72-.868-1.232-.023-.334.529-7.005.61-7.384.18-.833.885-1.53 1.719-1.7.088-.017 2.698-.029 5.8-.026l5.64.006zM7.7 8.316c-.355.163-.46.392-.46 1v.438l-.516.013c-.508.013-.519.015-.67.136a.71.71 0 0 0-.294.588c0 .234.073.414.225.556.174.163.298.193.798.193h.457l.001.45c.001.489.057.686.244.858a.746.746 0 0 0 1.199-.248c.058-.125.074-.258.075-.61l.001-.45h.457c.5 0 .624-.03.798-.193a.72.72 0 0 0 .225-.556.71.71 0 0 0-.294-.588c-.151-.121-.162-.123-.67-.136l-.516-.013-.001-.447c-.001-.349-.017-.482-.075-.607-.181-.392-.607-.558-.984-.384m8.947.53a.737.737 0 0 0-.326.975c.255.527 1.017.567 1.325.069a.78.78 0 0 0-.02-.802.77.77 0 0 0-.979-.242m-2 2a.737.737 0 0 0-.326.975c.255.527 1.017.567 1.325.069a.78.78 0 0 0-.02-.802.77.77 0 0 0-.979-.242"/></svg>

<svg fill="none" xmlns="http://www.w3.org/2000/svg" viewBox="0 0 24 24"><path d="M6.310 5.285 C 4.941 5.417,3.637 6.474,3.207 7.800 C 3.160 7.943,3.104 8.144,3.082 8.247 C 3.038 8.446,2.440 15.505,2.440 15.818 C 2.440 16.092,2.550 16.581,2.686 16.907 C 3.041 17.763,3.789 18.409,4.722 18.664 C 5.072 18.760,5.805 18.761,6.160 18.665 C 6.303 18.627,6.587 18.515,6.790 18.417 C 7.257 18.192,7.535 17.935,8.285 17.035 C 8.591 16.666,8.930 16.301,9.036 16.223 C 9.295 16.033,9.691 15.851,9.956 15.801 C 10.242 15.747,13.758 15.747,14.044 15.801 C 14.309 15.851,14.705 16.033,14.964 16.223 C 15.070 16.301,15.409 16.666,15.715 17.035 C 16.465 17.935,16.743 18.192,17.210 18.417 C 17.736 18.670,18.010 18.735,18.560 18.735 C 19.580 18.735,20.444 18.278,21.034 17.427 C 21.328 17.002,21.560 16.293,21.560 15.818 C 21.560 15.418,20.956 8.429,20.901 8.192 C 20.767 7.612,20.584 7.213,20.249 6.768 C 19.611 5.918,18.658 5.380,17.617 5.282 C 17.087 5.231,6.834 5.234,6.310 5.285 M18.015 6.890 C 18.743 7.181,19.263 7.779,19.419 8.500 C 19.500 8.879,20.052 15.550,20.029 15.884 C 19.995 16.396,19.647 16.888,19.161 17.116 C 18.968 17.206,18.889 17.219,18.540 17.217 C 17.877 17.214,17.782 17.149,16.922 16.122 C 16.147 15.197,15.892 14.968,15.300 14.668 C 14.532 14.279,14.236 14.241,12.000 14.241 C 9.764 14.241,9.468 14.279,8.700 14.668 C 8.108 14.968,7.853 15.197,7.078 16.122 C 6.218 17.149,6.123 17.214,5.460 17.217 C 5.111 17.219,5.032 17.206,4.839 17.116 C 4.353 16.888,4.005 16.396,3.971 15.884 C 3.948 15.550,4.500 8.879,4.581 8.500 C 4.761 7.667,5.466 6.970,6.300 6.800 C 6.388 6.783,8.998 6.771,12.100 6.774 L 17.740 6.780 18.015 6.890 M7.700 8.316 C 7.345 8.479,7.240 8.708,7.240 9.316 L 7.240 9.754 6.724 9.767 C 6.216 9.780,6.205 9.782,6.054 9.903 C 5.855 10.061,5.760 10.252,5.760 10.491 C 5.760 10.725,5.833 10.905,5.985 11.047 C 6.159 11.210,6.283 11.240,6.783 11.240 L 7.240 11.240 7.241 11.690 C 7.242 12.179,7.298 12.376,7.485 12.548 C 7.871 12.903,8.463 12.781,8.684 12.300 C 8.742 12.175,8.758 12.042,8.759 11.690 L 8.760 11.240 9.217 11.240 C 9.717 11.240,9.841 11.210,10.015 11.047 C 10.167 10.905,10.240 10.725,10.240 10.491 C 10.240 10.252,10.145 10.061,9.946 9.903 C 9.795 9.782,9.784 9.780,9.276 9.767 L 8.760 9.754 8.759 9.307 C 8.758 8.958,8.742 8.825,8.684 8.700 C 8.503 8.308,8.077 8.142,7.700 8.316 M16.647 8.846 C 16.295 9.020,16.147 9.463,16.321 9.821 C 16.576 10.348,17.338 10.388,17.646 9.890 C 17.788 9.662,17.779 9.309,17.626 9.088 C 17.410 8.777,16.994 8.674,16.647 8.846 M14.647 10.846 C 14.295 11.020,14.147 11.463,14.321 11.821 C 14.576 12.348,15.338 12.388,15.646 11.890 C 15.788 11.662,15.779 11.309,15.626 11.088 C 15.410 10.777,14.994 10.674,14.647 10.846 " stroke="none" fill-rule="evenodd"/></svg>
